svgs/sharp-light/calendar-lines-pen.svg

<svg xmlns="http://www.w3.org/2000/svg" viewBox="0 0 576 512"><!--! Font Awesome Pro 6.6.0 by @fontawesome - https://fontawesome.com License - https://fontawesome.com/license (Commercial License) Copyright 2024 Fonticons, Inc. --><path d="M128 16l0-16L96 0l0 16 0 48L32 64 0 64 0 96l0 64 0 32L0 480l0 32 32 0 221.4 0 4.6-32L32 480l0-288 352 0 32 0 32 0 0-32 0-64 0-32-32 0-64 0 0-48 0-16L320 0l0 16 0 48L128 64l0-48zM32 96l384 0 0 64L32 160l0-64zm80 256l-16 0 0 32 16 0 128 0 16 0 0-32-16 0-128 0zM96 256l0 32 16 0 224 0 16 0 0-32-16 0-224 0-16 0zm393.3 13.3l41.5 41.5L508 333.5 466.5 292l22.8-22.8zM334 424.5L443.9 314.6l41.5 41.5L375.5 466l-49.1 7.7 7.7-49.1zM553.4 288.1L489.3 224 304 409.3l-10.8 69.5L288 512l33.2-5.2L390.7 496 553.4 333.3 576 310.7l-22.6-22.6z"/></svg>

<svg xmlns="http://www.w3.org/2000/svg" viewBox="0 0 576 512"><!--! Font Awesome Pro 6.4.0 by @fontawesome - https://fontawesome.com License - https://fontawesome.com/license (Commercial License) Copyright 2023 Fonticons, Inc. --><path d="M128 16V0H96V16 64H32 0V96v64 32V480v32H32 253.4l4.6-32H32V192H384h32 32V160 96 64H416 352V16 0H320V16 64H128V16zM32 96H416v64H32V96zm80 256H96v32h16H240h16V352H240 112zM96 256v32h16H336h16V256H336 112 96zm393.3 13.3l41.5 41.5L508 333.5 466.5 292l22.8-22.8zM334 424.5L443.9 314.6l41.5 41.5L375.5 466l-49.1 7.7 7.7-49.1zM553.4 288.1L489.3 224 304 409.3l-10.8 69.5L288 512l33.2-5.2L390.7 496 553.4 333.3 576 310.7l-22.6-22.6z"/></svg>
